X: 7250
T: Clara Mannion's
R: reel
M: 4/4
K: Amajor
Ac~c2 eaec|BAcB BAFA|EAAG ABce|faea daca|
Ac~c2 eaec|BAcB BAFA|ECEA D2FA|BecB BAA2:|
c'2c'b baea|fecA BAFA|c'2c'b bafe|fbba b2ab|
c'2c'b baea|fecA BAFA|ECEA D2FA|BecB BAA2:|

